resources/svg/lock-circle.svg

<svg xmlns="http://www.w3.org/2000/svg" viewBox="0 0 15 15" fill="currentColor"><path d="M7.5 4C6.67157 4 6 4.67157 6 5.5V6H9V5.5C9 4.67157 8.32843 4 7.5 4Z" fill="black"/><path fill-rule="evenodd" clip-rule="evenodd" d="M7.5 0C11.6421 0 15 3.35786 15 7.5C15 11.6421 11.6421 15 7.5 15C3.35786 15 -2.54447e-06 11.6421 0 7.5C0 3.35786 3.35786 -2.54447e-06 7.5 0ZM5 5.5V6.08535C4.4174 6.29127 4 6.84689 4 7.5V10.5C4 11.3284 4.67157 12 5.5 12H9.5C10.3284 12 11 11.3284 11 10.5V7.5C11 6.84689 10.5826 6.29127 10 6.08535V5.5C10 4.11929 8.88071 3 7.5 3C6.11929 3 5 4.11929 5 5.5Z" fill="black"/></svg>

<svg xmlns="http://www.w3.org/2000/svg" viewBox="0 0 15 15" fill="currentColor"><path d="M7.5 4A1.5 1.5 0 006 5.5V6h3v-.5A1.5 1.5 0 007.5 4z" fill="currentColor"/><path fill-rule="evenodd" clip-rule="evenodd" d="M7.5 0a7.5 7.5 0 110 15 7.5 7.5 0 010-15zM5 5.5v.585A1.5 1.5 0 004 7.5v3A1.5 1.5 0 005.5 12h4a1.5 1.5 0 001.5-1.5v-3a1.5 1.5 0 00-1-1.415V5.5a2.5 2.5 0 00-5 0z" fill="currentColor"/></svg>
